templates/main/source/images/servisnoe-obsl.svg

<?xml version="1.0" encoding="utf-8"?>
<svg width="43px" height="51px" viewBox="0 0 43 51" version="1.1" xmlns:xlink="http://www.w3.org/1999/xlink" xmlns="http://www.w3.org/2000/svg">
  <desc>Created with Lunacy</desc>
  <g id="servisnoe-obsl">
    <path d="M3.99561 23.3518C4.20015 24.1689 4.98108 24.7057 5.81717 24.6041C6.65327 24.5024 7.28281 23.7941 7.28561 22.9518C7.28561 15.6018 7.64561 14.9518 6.64561 14.1218C8.92561 0.251817 28.5456 0.351817 30.9256 14.1218C29.9256 14.9218 30.2856 15.6018 30.2856 22.9518C30.2919 23.5047 30.578 24.0167 31.0456 24.3118C31.0456 30.0218 28.6956 29.6918 21.6456 31.5418C21.1156 30.9484 20.2506 30.79 19.5448 31.1572C18.8389 31.5244 18.4721 32.3236 18.6538 33.0982C18.8355 33.8728 19.5195 34.4255 20.315 34.4405C21.1105 34.4555 21.8148 33.929 22.0256 33.1618C27.7156 31.6718 32.7256 31.1618 32.7256 25.5718L32.7256 24.4118C33.1473 24.1936 33.4537 23.8033 33.5656 23.3418C39.0556 23.2318 39.0556 15.1018 33.5656 14.9918C33.4489 14.5651 33.1637 14.2041 32.7756 13.9918C32.8912 11.9256 32.489 9.86324 31.6056 7.99182C24.9056 -5.68818 5.07561 -0.328183 4.76561 12.9418C4.73087 13.2742 4.73087 13.6094 4.76561 13.9418C4.37748 14.1541 4.09233 14.5151 3.97561 14.9418C1.74918 15.0508 4.44089e-16 16.8877 0 19.1168C-4.44089e-16 21.3459 1.74918 23.1828 3.97561 23.2918L3.99561 23.3518Z" transform="translate(2.7158203 0)" id="Path" fill="#8C0014" stroke="none" />
    <path d="M25.6266 24.8945C25.6246 24.8959 25.6226 24.8973 25.6205 24.8988L25.6305 24.8988C25.6292 24.8973 25.6279 24.8959 25.6266 24.8945ZM31.7805 11.4488C31.7805 16.8157 29.2434 22.3725 25.6266 24.8945C24.8153 24.0053 23.5971 23.6063 22.4168 23.8436C21.2346 24.0813 20.264 24.9224 19.8605 26.0588C14.9605 24.7787 11.2205 17.9788 11.2205 11.4488C11.2205 -3.81125 31.7805 -3.82125 31.7805 11.4488ZM41.7705 37.4787L42.8405 40.5788C43.1485 41.4823 42.9954 42.4793 42.4305 43.2487C41.864 44.024 40.9607 44.4812 40.0005 44.4788L3.00051 44.4788C2.03683 44.4845 1.12908 44.0269 0.560515 43.2487C-0.00258605 42.4782 -0.152054 41.4805 0.160515 40.5788L1.23051 37.4787C3.27675 31.5636 8.7458 27.5125 15.0005 27.2787C16.6154 28.5556 18.5621 29.3433 20.6105 29.5487C21.4319 30.3762 22.6156 30.7328 23.7574 30.4968C24.8992 30.2608 25.8445 29.4641 26.2705 28.3787C26.8772 28.0616 27.4559 27.6936 28.0005 27.2787C34.2552 27.5125 39.7243 31.5636 41.7705 37.4787Z" transform="translate(0 5.5234375)" id="Combined-Shape" fill="#A6A6A6" fill-rule="evenodd" stroke="none" />
  </g>
</svg>

<svg width="43" height="51" viewBox="0 0 43 51" xmlns:xlink="http://www.w3.org/1999/xlink" xmlns="http://www.w3.org/2000/svg"><g id="servisnoe-obsl" stroke="none"><path d="M3.996 23.352a1.67 1.67 0 003.29-.4c0-7.35.36-8-.64-8.83 2.28-13.87 21.9-13.77 24.28 0-1 .8-.64 1.48-.64 8.83a1.63 1.63 0 00.76 1.36c0 5.71-2.35 5.38-9.4 7.23a1.74 1.74 0 10.38 1.62c5.69-1.49 10.7-2 10.7-7.59v-1.16a1.64 1.64 0 00.84-1.07c5.49-.11 5.49-8.24 0-8.35a1.63 1.63 0 00-.79-1 12.43 12.43 0 00-1.17-6c-6.7-13.68-26.53-8.32-26.84 4.95a4.81 4.81 0 000 1 1.63 1.63 0 00-.79 1 4.18 4.18 0 000 8.35l.02.06z" transform="translate(2.716)" id="Path" fill="#8C0014"/><path d="M25.627 24.895c-.002 0-.004.002-.006.004h.01a.167.167 0 00-.004-.005zm6.154-13.446c0 5.367-2.538 10.923-6.154 13.446a3.43 3.43 0 00-5.767 1.164c-4.9-1.28-8.64-8.08-8.64-14.61 0-15.26 20.56-15.27 20.56 0zm9.99 26.03l1.07 3.1a2.92 2.92 0 01-.41 2.67 3 3 0 01-2.43 1.23H3a3 3 0 01-2.44-1.23 2.91 2.91 0 01-.4-2.67l1.07-3.1A15.17 15.17 0 0115 27.279a10.779 10.779 0 005.61 2.27 3.45 3.45 0 005.66-1.17 12.115 12.115 0 001.73-1.1 15.17 15.17 0 0113.77 10.2z" transform="translate(0 5.523)" id="Combined-Shape" fill="#A6A6A6" fill-rule="evenodd"/></g></svg>
